X:2
T:Man of the House, The
R:reel
M:4/4
L:1/8
K:Edor
&quot;Variations:&quot;\
~E3B GEBG|~E3B AFDF|~E3B GEBc|1 d2cA BFAF:|2 d2cA BEE2|]
~e3g f2fa|(3gfe fd ed (3Bcd|1 ~e3g ~f2af|gfed Beed:|2 bgaf (3gfe fd|edBG AGFD|]
</abc>
